X: 4445
T: Bonnie Isabell Robertson
R: hornpipe
M: 4/4
K: Dmajor
AG|:FAdf gfed|cdec ABAG|FAd2d2ef|(3gag (3fgfe2AG|
FAdf gfed|dcBA BAGF|GBAG FDEC|1 D2D2D2AG:|2 D2D2D2fg||
|:afdf gece|dBGB AFD2|gabg fgaf|(3gag (3fgfe2fg|
afdf gece|dBGB AFDF|GBAG FDEC|1 D2D2D2fg:|2 D2D2D2||

